docs/images/logo.svg

<svg width="45" height="45" viewBox="0 0 45 45" fill="none" xmlns="http://www.w3.org/2000/svg">
<path d="M1.66699 13.3299L6.56769 44.5229H37.7361L42.6123 13.3299H32.1738L29.797 30.7519H29.503L25.9255 13.3299H18.3294L14.7028 30.7519H14.4088L12.081 13.3299H1.66699Z" fill="white"/>
<path d="M7.62058 9.94842H12.1047V7.49807C12.1047 3.06294 10.5365 0 4.58215 0C1.29868 0 0 2.64638 0 4.26361C0 8.60073 3.60201 9.94842 7.62058 9.94842Z" fill="white"/>
<path d="M44.2541 4.26361C44.2541 2.64638 42.9555 0 39.672 0C33.7176 0 32.1494 3.06294 32.1494 7.49807V9.94842H36.6581C40.6766 9.94842 44.2786 8.60073 44.2786 4.26361H44.2541Z" fill="white"/>
<path d="M20.6565 9.94842C26.6108 9.94842 28.179 6.88548 28.179 2.45035V0H23.6704C19.6518 0 16.0498 1.34769 16.0498 5.68481C16.0498 7.30204 17.3485 9.94842 20.632 9.94842H20.6565Z" fill="white"/>
</svg>

<svg xmlns="http://www.w3.org/2000/svg" width="45" height="45" fill="none"><path fill="#fff" d="m1.667 13.33 4.9 31.193h31.17l4.875-31.193H32.174l-2.377 17.422h-.294L25.925 13.33H18.33l-3.626 17.422h-.294L12.08 13.33zM7.62 9.948h4.485v-2.45C12.105 3.063 10.536 0 4.582 0 1.3 0 0 2.646 0 4.264 0 8.6 3.602 9.948 7.62 9.948m36.634-5.684C44.254 2.646 42.956 0 39.672 0c-5.954 0-7.523 3.063-7.523 7.498v2.45h4.51c4.018 0 7.62-1.347 7.62-5.684zM20.657 9.948c5.954 0 7.522-3.063 7.522-7.498V0H23.67c-4.018 0-7.62 1.348-7.62 5.685 0 1.617 1.299 4.263 4.582 4.263z"/></svg>
